img/football-black.svg

<svg width="74" height="73" viewBox="0 0 74 73" xmlns="http://www.w3.org/2000/svg"><title>football-black</title><g fill="none" fill-rule="evenodd"><path d="M73.429 36.382c0 20.073-16.271 36.344-36.345 36.344-20.063 0-36.34-16.271-36.34-36.344C.744 16.313 17.02.041 37.084.041c20.073.001 36.345 16.272 36.345 36.341z" fill="#FFF"/><path fill="#000" fill-rule="nonzero" d="M37.084 22.182l-13.508 9.813 5.164 15.879h16.69l5.163-15.879z"/><path d="M73.429 36.382c0 20.073-16.271 36.344-36.345 36.344-20.063 0-36.34-16.271-36.34-36.344C.744 16.313 17.02.041 37.084.041c20.073.001 36.345 16.272 36.345 36.341zM5.604 43.575l13.318 9.673-2.569 7.898A32.314 32.314 0 0 0 34.19 68.55l13.318-9.679 6.722 4.881a32.302 32.302 0 0 0 12.546-14.677l-5.079-15.66 6.72-4.881A32.358 32.358 0 0 0 58.33 12.06H41.869l-2.57-7.898A32.309 32.309 0 0 0 20.518 8.66L15.43 24.316H7.123a32.28 32.28 0 0 0-1.519 19.259z" fill="#000" fill-rule="nonzero"/></g></svg>

<?xml version="1.0" encoding="UTF-8"?>
<svg width="74px" height="73px" viewBox="0 0 74 73" version="1.1" xmlns="http://www.w3.org/2000/svg" xmlns:xlink="http://www.w3.org/1999/xlink">
    <!-- Generator: Sketch 43.2 (39069) - http://www.bohemiancoding.com/sketch -->
    <title>football-black</title>
    <desc>Created with Sketch.</desc>
    <defs></defs>
    <g id="Page-1" stroke="none" stroke-width="1" fill="none" fill-rule="evenodd">
        <g id="Football" transform="translate(-165.000000, 0.000000)">
            <g id="football-black" transform="translate(165.000000, 0.000000)">
                <path d="M73.429,36.382 C73.429,56.455 57.158,72.726 37.084,72.726 C17.021,72.726 0.744,56.455 0.744,36.382 C0.744,16.313 17.02,0.041 37.084,0.041 C57.157,0.042 73.429,16.313 73.429,36.382 L73.429,36.382 Z" id="Path" fill="#FFFFFF"></path>
                <polygon id="Shape" fill="#000000" fill-rule="nonzero" points="37.084 22.182 23.576 31.995 28.74 47.874 45.43 47.874 50.593 31.995"></polygon>
                <path d="M73.429,36.382 C73.429,56.455 57.158,72.726 37.084,72.726 C17.021,72.726 0.744,56.455 0.744,36.382 C0.744,16.313 17.02,0.041 37.084,0.041 C57.157,0.042 73.429,16.313 73.429,36.382 L73.429,36.382 Z M5.604,43.575 L18.922,53.248 L16.353,61.146 C21.403,65.376 27.634,67.958 34.19,68.55 L47.508,58.871 L54.23,63.752 C59.806,60.255 64.193,55.13 66.776,49.075 L61.697,33.415 L68.417,28.534 C66.81,22.147 63.291,16.392 58.33,12.06 L41.869,12.06 L39.299,4.162 C32.731,3.711 26.175,5.28 20.518,8.66 L15.43,24.316 L7.123,24.316 C4.667,30.429 4.128,37.15 5.604,43.575 Z" id="Shape" fill="#000000" fill-rule="nonzero"></path>
            </g>
        </g>
    </g>
</svg>
